icons/op-include-projects-16.svg

<svg width="16" height="16" viewBox="0 0 16 16" fill="none" xmlns="http://www.w3.org/2000/svg">
<g clip-path="url(#clip0_3465_245)">
<path d="M0 1.75C0 0.783501 0.783502 0 1.75 0H14.25C15.2165 0 16 0.783502 16 1.75V9.25C16 9.66421 15.6642 10 15.25 10C14.8358 10 14.5 9.66421 14.5 9.25V1.75C14.5 1.61193 14.3881 1.5 14.25 1.5H1.75C1.61193 1.5 1.5 1.61193 1.5 1.75V14.25C1.5 14.3881 1.61193 14.5 1.75 14.5H9.25C9.66421 14.5 10 14.8358 10 15.25C10 15.6642 9.66421 16 9.25 16H1.75C0.783501 16 0 15.2165 0 14.25V1.75Z" fill="#636C76"/>
<path d="M13.0002 10.0002C13.4521 10.0002 13.8184 10.3665 13.8184 10.8184V12.182H15.182C15.6339 12.182 16.0002 12.5483 16.0002 13.0002C16.0002 13.4521 15.6339 13.8184 15.182 13.8184H13.8184V15.182C13.8184 15.6339 13.4521 16.0002 13.0002 16.0002C12.5483 16.0002 12.182 15.6339 12.182 15.182V13.8184H10.8184C10.3665 13.8184 10.0002 13.4521 10.0002 13.0002C10.0002 12.5483 10.3665 12.182 10.8184 12.182H12.182V10.8184C12.182 10.3665 12.5483 10.0002 13.0002 10.0002Z" fill="#636C76"/>
<path d="M11 3.75C11 3.33579 11.3358 3 11.75 3C12.1642 3 12.5 3.33579 12.5 3.75V8.25C12.5 8.6642 12.1642 9 11.75 9C11.3358 9 11 8.6642 11 8.25V3.75Z" fill="#636C76"/>
<path d="M4.25 3C3.83579 3 3.5 3.33579 3.5 3.75V9.25C3.5 9.66421 3.83579 10 4.25 10C4.66421 10 5 9.66421 5 9.25V3.75C5 3.33579 4.66421 3 4.25 3Z" fill="#636C76"/>
<path d="M7.25 3.75C7.25 3.33579 7.58579 3 8 3C8.41421 3 8.75 3.33579 8.75 3.75V7.25C8.75 7.66421 8.41421 8 8 8C7.58579 8 7.25 7.66421 7.25 7.25V3.75Z" fill="#636C76"/>
</g>
<defs>
<clipPath id="clip0_3465_245">
<rect width="16" height="16" fill="white"/>
</clipPath>
</defs>
</svg>

<svg xmlns="http://www.w3.org/2000/svg" width="16" height="16" viewBox="0 0 16 16"><path d="M0 1.75C0 .784.784 0 1.75 0h12.5C15.217 0 16 .784 16 1.75v7.5a.75.75 0 0 1-1.5 0v-7.5a.25.25 0 0 0-.25-.25H1.75a.25.25 0 0 0-.25.25v12.5c0 .138.112.25.25.25h7.5a.75.75 0 0 1 0 1.5h-7.5A1.75 1.75 0 0 1 0 14.25Z"/><path d="M13 10c.452 0 .818.366.818.818v1.364h1.364c.446 0 .808.356.818.8v.036a.818.818 0 0 1-.818.8h-1.364v1.364a.818.818 0 0 1-.8.818h-.036a.818.818 0 0 1-.8-.818v-1.364h-1.364a.818.818 0 1 1 0-1.636h1.364v-1.364c0-.452.366-.818.818-.818Zm-2-6.25a.75.75 0 0 1 1.5 0v4.5a.75.75 0 0 1-1.5 0ZM4.25 3a.75.75 0 0 1 .75.75v5.5a.75.75 0 0 1-1.5 0v-5.5A.75.75 0 0 1 4.25 3Zm3 .75a.75.75 0 0 1 1.5 0v3.5a.75.75 0 0 1-1.5 0Z"/></svg>
